Numix-GalliumOS/64/mimetypes/application-x-thz.svg

<svg xmlns="http://www.w3.org/2000/svg" xmlns:xlink="http://www.w3.org/1999/xlink" width="64px" height="64px" viewBox="0 0 64 64" version="1.1">
<g id="surface1">
<path style=" stroke:none;fill-rule:nonzero;fill:rgb(75.686275%,58.431373%,32.54902%);fill-opacity:1;" d="M 10.671875 0 C 9.296875 0 8 1.355469 8 2.789062 L 8 61.210938 C 8 62.566406 9.375 64 10.671875 64 L 53.328125 64 C 54.625 64 56 62.566406 56 61.210938 L 56 18 L 38 0 Z M 10.671875 0 "/>
<path style=" stroke:none;fill-rule:nonzero;fill:rgb(0%,0%,0%);fill-opacity:0.196078;" d="M 8 48 L 8 61.335938 C 8 62.632812 9.375 64 10.664062 64 L 53.335938 64 C 54.625 64 56 62.632812 56 61.335938 L 56 48 Z M 8 48 "/>
<path style=" stroke:none;fill-rule:nonzero;fill:rgb(0%,0%,0%);fill-opacity:0.196078;" d="M 42 18 L 56 32 L 56 18 Z M 42 18 "/>
<path style=" stroke:none;fill-rule:nonzero;fill:rgb(100%,100%,100%);fill-opacity:1;" d="M 26.875 50.730469 L 26.875 52.589844 L 23.664062 52.589844 L 23.664062 62 L 21.21875 62 L 21.21875 52.589844 L 18 52.589844 L 18 50.730469 L 26.875 50.730469 "/>
<path style=" stroke:none;fill-rule:nonzero;fill:rgb(100%,100%,100%);fill-opacity:0.392157;" d="M 38 0 L 55.984375 18 L 40.757812 18 C 39.410156 18 38 16.574219 38 15.226562 Z M 38 0 "/>
<path style=" stroke:none;fill-rule:nonzero;fill:rgb(100%,100%,100%);fill-opacity:1;" d="M 36.34375 50.730469 L 36.34375 62 L 33.914062 62 L 33.914062 57.03125 L 30.679688 57.03125 L 30.679688 62 L 28.253906 62 L 28.253906 50.730469 L 30.679688 50.730469 L 30.679688 55.171875 L 33.914062 55.171875 L 33.914062 50.730469 L 36.34375 50.730469 "/>
<path style=" stroke:none;fill-rule:evenodd;fill:rgb(97.647059%,97.647059%,97.647059%);fill-opacity:1;" d="M 18 0 L 24 0 L 24 6 L 18 6 Z M 18 0 "/>
<path style=" stroke:none;fill-rule:nonzero;fill:rgb(100%,100%,100%);fill-opacity:1;" d="M 46 52.292969 C 45.4375 53.09375 44.917969 53.851562 44.441406 54.554688 C 43.96875 55.257812 43.53125 55.933594 43.117188 56.578125 C 42.714844 57.203125 42.328125 57.816406 41.957031 58.410156 C 41.601562 58.996094 41.261719 59.574219 40.929688 60.144531 L 46.179688 60.144531 L 46.179688 62 L 38.132812 62 L 38.132812 60.703125 C 38.421875 60.183594 38.734375 59.640625 39.058594 59.070312 C 39.386719 58.484375 39.757812 57.863281 40.164062 57.210938 C 40.570312 56.550781 41.015625 55.84375 41.484375 55.082031 C 41.972656 54.316406 42.507812 53.480469 43.085938 52.589844 L 38.390625 52.589844 L 38.390625 50.730469 L 46 50.730469 L 46 52.292969 "/>
<path style=" stroke:none;fill-rule:evenodd;fill:rgb(97.647059%,97.647059%,97.647059%);fill-opacity:1;" d="M 24 6 L 30 6 L 30 12 L 24 12 Z M 24 6 "/>
<path style=" stroke:none;fill-rule:evenodd;fill:rgb(97.647059%,97.647059%,97.647059%);fill-opacity:1;" d="M 18 12 L 24 12 L 24 18 L 18 18 Z M 18 12 "/>
<path style=" stroke:none;fill-rule:evenodd;fill:rgb(97.647059%,97.647059%,97.647059%);fill-opacity:1;" d="M 24 18 L 30 18 L 30 24 L 24 24 Z M 24 18 "/>
<path style=" stroke:none;fill-rule:evenodd;fill:rgb(97.647059%,97.647059%,97.647059%);fill-opacity:1;" d="M 18 24 L 24 24 L 24 30 L 18 30 Z M 18 24 "/>
<path style=" stroke:none;fill-rule:evenodd;fill:rgb(97.647059%,97.647059%,97.647059%);fill-opacity:1;" d="M 18 32 L 30 32 L 30 44 L 18 44 Z M 18 32 "/>
</g>
</svg>

<svg xmlns="http://www.w3.org/2000/svg" viewBox="0 0 64 64">
 <g>
  <path d="m 10.672 0 c -1.375 0 -2.672 1.355 -2.672 2.789 l 0 58.42 c 0 1.355 1.375 2.789 2.672 2.789 l 42.656 0 c 1.297 0 2.672 -1.434 2.672 -2.789 l 0 -43.21 l -18 -18 m -27.328 0" style="fill:#c19553;fill-opacity:1;stroke:none;fill-rule:nonzero"/>
  <path d="m 8 48 l 0 13.336 c 0 1.297 1.375 2.664 2.664 2.664 l 42.672 0 c 1.289 0 2.664 -1.367 2.664 -2.664 l 0 -13.336 m -48 0" style="fill:#000;fill-opacity:0.196;stroke:none;fill-rule:nonzero"/>
  <path d="m 42 18 l 14 14 l 0 -14 m -14 0" style="fill:#000;fill-opacity:0.196;stroke:none;fill-rule:nonzero"/>
  <path d="m 26.875 50.73 l 0 1.859 l -3.211 0 l 0 9.41 l -2.445 0 l 0 -9.41 l -3.219 0 l 0 -1.859 l 8.875 0" style="fill:#fff;fill-opacity:1;stroke:none;fill-rule:nonzero"/>
  <path d="m 38 0 l 17.984 18 l -15.227 0 c -1.348 0 -2.758 -1.426 -2.758 -2.773 m 0 -15.227" style="fill:#fff;fill-opacity:0.392;stroke:none;fill-rule:nonzero"/>
  <path d="m 36.34 50.73 l 0 11.27 l -2.43 0 l 0 -4.969 l -3.234 0 l 0 4.969 l -2.426 0 l 0 -11.27 l 2.426 0 l 0 4.441 l 3.234 0 l 0 -4.441 l 2.43 0" style="fill:#fff;fill-opacity:1;stroke:none;fill-rule:nonzero"/>
  <path d="m 18 0 l 6 0 l 0 6 l -6 0 m 0 -6" style="fill:#f9f9f9;fill-opacity:1;stroke:none;fill-rule:evenodd"/>
  <path d="m 46 52.29 c -0.563 0.801 -1.082 1.559 -1.559 2.262 c -0.473 0.703 -0.91 1.379 -1.324 2.023 c -0.402 0.625 -0.789 1.238 -1.16 1.832 c -0.355 0.586 -0.695 1.164 -1.027 1.734 l 5.25 0 l 0 1.855 l -8.05 0 l 0 -1.297 c 0.289 -0.52 0.602 -1.063 0.926 -1.633 c 0.328 -0.586 0.699 -1.207 1.105 -1.859 c 0.406 -0.66 0.852 -1.367 1.32 -2.129 c 0.488 -0.766 1.023 -1.602 1.602 -2.492 l -4.695 0 l 0 -1.859 l 7.609 0 l 0 1.563" style="fill:#fff;fill-opacity:1;stroke:none;fill-rule:nonzero"/>
  <path d="m 24 6 l 6 0 l 0 6 l -6 0 m 0 -6" style="fill:#f9f9f9;fill-opacity:1;stroke:none;fill-rule:evenodd"/>
  <path d="m 18 12 l 6 0 l 0 6 l -6 0 m 0 -6" style="fill:#f9f9f9;fill-opacity:1;stroke:none;fill-rule:evenodd"/>
  <path d="m 24 18 l 6 0 l 0 6 l -6 0 m 0 -6" style="fill:#f9f9f9;fill-opacity:1;stroke:none;fill-rule:evenodd"/>
  <path d="m 18 24 l 6 0 l 0 6 l -6 0 m 0 -6" style="fill:#f9f9f9;fill-opacity:1;stroke:none;fill-rule:evenodd"/>
  <path d="m 18 32 l 12 0 l 0 12 l -12 0 m 0 -12" style="fill:#f9f9f9;fill-opacity:1;stroke:none;fill-rule:evenodd"/>
 </g>
</svg>
